!!!COM: Anon.
!!!OTL: Doteo-To\_ruwa
!!!OTC: Japanese Popular Music: A Collection of The Popular Music of Japan Rendered in to the Staff notation.
!!!CNT: Nippon, Japanese
!!!TXO: Nippon, Japan
!!!OCY: Nippon, Japan
!!!ODT: <1892///
!!!PSR: S. Miki & Co.
!!!PSP: Osaka, Nippon
!!!PDT: 1892///
!!!PPE: Y Nagai & K. Kobatake
!!!PED: Revised Second Edition
!!!PPG: page 61
!! Moderato
**kern	**silbe
*ICstr	*Lnippon
*ICvox	*
*Ikoto	*
*Ivox	*
*clefG2	*
*k[]	*
*M4/4	*
=1-	=1-
4b	.
4a	.
4.b	.
8a	.
=2	=2
4b	.
2b	.
8a	.
8b	.
=3	=3
4B	.
4r	.
4e	.
8B	.
8d	.
=4	=4
4e	.
(4a	.
4f	.
4e	.
=5	=5
4c)	.
4e	.
4c	.
4B	.
=6	=6
4a	.
4b	.
4cc	.
4ee	.
=7	=7
4cc	.
8b	.
8cc	.
4a	.
4f	.
=8	=8
2e	.
4.B	.
8d	.
=9	=9
8e	.
8r	.
8f	.
8f	.
8r	.
8a	.
8f	.
8e	.
=10	=10
8a	.
8b	.
8cc	.
8r	.
8dd	.
8ee	.
8ff	.
8r	.
=11	=11
8e	.
8ee	.
8r	.
8cc	.
4b	.
8a	.
8e	.
=12	=12
4ee	.
4ee	.
2ee	.
=13	=13
2ee	.
4r	.
8ff	.
8ee	.
=14	=14
8dd	.
8ee	.
4ff	.
4e 4ee	.
4r	.
=15	=15
2ff	.
8ee	.
8ee	.
8r	.
8ee	.
=16	=16
8a	.
8r	.
8b	.
8r	.
8e	.
8r	.
8ff	.
8r	.
=17	=17
8ee	.
4ee	.
8cc	.
4b	.
8b	.
8cc	.
=18	=18
4ee	.
4cc	.
(4b	.
4a)	.
=19	=19
4f	.
2e	.
8cc	.
8b	.
=20	=20
8a	.
8b	.
8a	.
8f	.
4e	.
8a	.
8f	.
=21	=21
4f	.
4f	.
4f	.
4f	.
=22	=22
4f	.
8f	.
8a	.
4b	.
8cc	.
8a	.
=23	=23
8r	.
4f	.
8a	.
8.b	.
16a	.
4f	.
=24	=24
2e	.
4ee	.
4cc	.
=25	=25
(4b	.
4a	.
4f)	.
(4a	.
=26	=26
8b)	.
8cc	.
4b	.
4b	.
4b	.
=27	=27
2b	.
4.e	.
8d	.
=28	=28
4.e	.
8c	.
8e	.
8f	.
8e	.
8c	.
=29	=29
4B	.
4aa	.
4ff	.
4aa	.
=30	=30
4ff	.
4ee	.
4cc	.
4ee	.
=31	=31
8cc	.
8r	.
8cc	.
8b	.
8a	.
8f	.
8a	.
8b	.
=32	=32
8cc	.
8b	.
8r	.
8a	.
4.b	.
8cc	.
=33	=33
4b	.
4a	.
4B 4b	.
4r	.
==	==
*-	*-
!!!ENC: David Huron
!!!RDT: 2000/1/30
!!!EEV: Release 1.0
!!!ELF: 17/28
!!!YER: 2000/2/1
!!!YEM: Copyright David Huron, 2000
!!!YEN: United States of America
